assets/copyright.svg

<svg viewBox="0 0 32 32" xmlns="http://www.w3.org/2000/svg"><path d="m26 16c0 2.7536-0.9855 5.1159-2.9565 7.087-1.9421 1.942-4.2899 2.913-7.0435 2.913-2.7826 0-5.1449-0.971-7.087-2.913-1.942-1.9421-2.913-4.3044-2.913-7.087 0-2.7536 0.97101-5.1014 2.913-7.0435 1.9711-1.971 4.3334-2.9565 7.087-2.9565 2.7246 0 5.0725 0.98551 7.0435 2.9565 1.971 1.971 2.9565 4.3189 2.9565 7.0435zm-17.913 0c0 2.1449 0.78261 4 2.3478 5.5652 1.5652 1.5652 3.4203 2.3478 5.5652 2.3478 2.1739 0 4.029-0.7681 5.5652-2.3043 1.5652-1.5652 2.3478-3.4348 2.3478-5.6087 0-2.2029-0.7681-4.0725-2.3043-5.6087-1.5362-1.5362-3.4058-2.3043-5.6087-2.3043-2.1739 0-4.0435 0.78261-5.6087 2.3478-1.5362 1.5362-2.3043 3.3913-2.3043 5.5652zm8.0869 5.1739c-1.4782 0-2.7101-0.4927-3.6956-1.4782-0.9855-0.9856-1.4783-2.2174-1.4783-3.6957 0-1.4493 0.4928-2.6667 1.4783-3.6522 1.0145-1.0145 2.2463-1.5217 3.6956-1.5217 1.3913 0 2.6522 0.5652 3.7826 1.6956l-1.3913 1.2609c-0.6666-0.6956-1.4638-1.0435-2.3913-1.0435-0.8696 0-1.6232 0.3189-2.2609 0.9566-0.6087 0.6376-0.913 1.4057-0.913 2.3043 0 0.4348 0.087 0.8551 0.2609 1.2609s0.4058 0.7536 0.6956 1.0434c0.2899 0.2899 0.6232 0.5218 1 0.6957s0.7826 0.2609 1.2174 0.2609c1.1015 0 1.971-0.4493 2.6087-1.3479l1.4783 1.174c-1.0435 1.3913-2.4058 2.0869-4.087 2.0869z" fill="#858391"/></svg>

<svg width="32" height="32" viewBox="0 0 32 32" fill="none" xmlns="http://www.w3.org/2000/svg">
<path d="M26 16C26 18.7536 25.0145 21.1159 23.0435 23.087C21.1014 25.029 18.7536 26 16 26C13.2174 26 10.8551 25.029 8.91304 23.087C6.97101 21.1449 6 18.7826 6 16C6 13.2464 6.97101 10.8986 8.91304 8.95652C10.8841 6.98551 13.2464 6 16 6C18.7246 6 21.0725 6.98551 23.0435 8.95652C25.0145 10.9275 26 13.2754 26 16ZM8.08696 16C8.08696 18.1449 8.86957 20 10.4348 21.5652C12 23.1304 13.8551 23.913 16 23.913C18.1739 23.913 20.029 23.1449 21.5652 21.6087C23.1304 20.0435 23.913 18.1739 23.913 16C23.913 13.7971 23.1449 11.9275 21.6087 10.3913C20.0725 8.85507 18.2029 8.08696 16 8.08696C13.8261 8.08696 11.9565 8.86957 10.3913 10.4348C8.85507 11.971 8.08696 13.8261 8.08696 16ZM16.1739 21.1739C14.6957 21.1739 13.4638 20.6812 12.4783 19.6957C11.4928 18.7101 11 17.4783 11 16C11 14.5507 11.4928 13.3333 12.4783 12.3478C13.4928 11.3333 14.7246 10.8261 16.1739 10.8261C17.5652 10.8261 18.8261 11.3913 19.9565 12.5217L18.5652 13.7826C17.8986 13.087 17.1014 12.7391 16.1739 12.7391C15.3043 12.7391 14.5507 13.058 13.913 13.6957C13.3043 14.3333 13 15.1014 13 16C13 16.4348 13.087 16.8551 13.2609 17.2609C13.4348 17.6667 13.6667 18.0145 13.9565 18.3043C14.2464 18.5942 14.5797 18.8261 14.9565 19C15.3333 19.1739 15.7391 19.2609 16.1739 19.2609C17.2754 19.2609 18.1449 18.8116 18.7826 17.913L20.2609 19.087C19.2174 20.4783 17.8551 21.1739 16.1739 21.1739Z" fill="#858391"/>
</svg>
